svgs/sharp-regular/person-chalkboard.svg

<svg xmlns="http://www.w3.org/2000/svg" viewBox="0 0 640 512"><!--! Font Awesome Pro 6.4.2 by @fontawesome - https://fontawesome.com License - https://fontawesome.com/license (Commercial License) Copyright 2023 Fonticons, Inc. --><path d="M192 96a48 48 0 1 0 0-96 48 48 0 1 0 0 96zm-51.1 32h-14L120 140.2l-76.9 136 41.8 23.6L128 223.6V488v24h48V488 352h32V488v24h48V488 176H392h24V128H392 368V48H592V272H368V224H320v48 48h48H592h48V272 48 0H592 368 320V48v80H243.1 140.9zM208 304H176V176h32V304z"/></svg>

<svg xmlns="http://www.w3.org/2000/svg" viewBox="0 0 640 512"><!--! Font Awesome Pro 6.6.0 by @fontawesome - https://fontawesome.com License - https://fontawesome.com/license (Commercial License) Copyright 2024 Fonticons, Inc. --><path d="M192 96a48 48 0 1 0 0-96 48 48 0 1 0 0 96zm-51.1 32l-14 0L120 140.2l-76.9 136 41.8 23.6L128 223.6 128 488l0 24 48 0 0-24 0-136 32 0 0 136 0 24 48 0 0-24 0-312 136 0 24 0 0-48-24 0-24 0 0-80 224 0 0 224-224 0 0-48-48 0 0 48 0 48 48 0 224 0 48 0 0-48 0-224 0-48L592 0 368 0 320 0l0 48 0 80-76.9 0-102.2 0zM208 304l-32 0 0-128 32 0 0 128z"/></svg>
